X:1
T:L'homme qui est
T:L'homme qui est
T:Pierre de Manchicourt
C:Pierre de Manchicourt
%%score [ 1 2 3 4 ]
L:1/8
Q:1/4=92
M:2/2
K:C
V:1 treble nm="Superius" snm="S"
V:2 treble nm="Alto" snm="A"
V:3 treble-8 nm="Tenor" snm="T"
V:4 bass nm="Bassus" snm="B"
V:1
 z8 | z4 G4 | c2 c2 c4 | A4 G2 g2- | gfed c2 e2 | d2 c2 B2 A2- | AG G4 F2 | G8 | z4 z2 d2 | %9
w: |L'hom-|me qui est|en ce mon-|* * * * de pre-|||sent,|en|
 d2 e2 c2 d2- | d2 G2 d2 e2- | e2 dc BA Bc | defd e2 d2- | dc c4 B2 | c8- | c4 z2 g2 | g2 g2 d4 | %17
w: son vi- vant voit|_ plu- si- eurs|_ beaux _ _ _ _ _|_ _ _ _ _ pas-|* * sa- *|ges,|_ mais|il nen voit,|
 z2 d2 d2 d2 | G2 G2 c2 c2 | A2 c4 B2- | BA A4 G2 | A8 | z2 e2 g3 f |: e4 d4 | B4 z2 c2 | %25
w: mais il nen|voit au moins bien|peu _ _|_ _ _ sou-|vent,|chan- tres es-|tre ri-|ches et|
 d2 d2 e2 e2 | d2 c4 B2 | c2 c2 d2 d2 | e2 c4 f2- | fe dc BG g2- | gf ed cB c2 | B2 A3 G G2- | %32
w: doc- teurs es- tre|sa- * *|ges, chan- tres es-|tre ri- ches|_ _ _ _ _ _ et|_ _ _ _ _ _ doc-|teurs es- tre sa-|
"^#" G2 F2 G4- | G8 |1 z2 e2 g3 f :|2"^#" G2 F2 G4- || G8 |] %37
w: * * ges,|_|chan- tres es-|(sa)- * ges.|_|
V:2
 z8 | D4 G2 G2 | E6 E2 | F4 E2 D2 | E2 G4 FE | F4 D2 E2- | E2 C2 D4 | z4 B,4 | B,2 C2 A,2 B,2 | %9
w: |L'hom- me qui|est en|ce mon- *|de pre- * *||* * sent,|en|son vi- vant voit,|
 G2 G2 A2 F2 | G2 E2 D2 CB, | C4 D2 G2 | FG AF G4 | A2 F2 G4 | z2 G2 G2 G2 | E2 DC DCB,A, | %16
w: en son vi- vant|voit plu- si- eurs _|beaux pas- sa-||* * ges,|mais il nen|voit _ _ _ _ _ _|
 B,2 B,2 B,2 B,2 | A,2 A,2 G,2 G2 | G2 G2 E2 E2 | F4 E2 G2 | F2 D2 E4- | E8- | E4 z2 G2 |: %23
w: _ en moins bien|peu sou- vent, mais|il nen voit en|moins bien peu|_ sou- vent,|_|* chan-|
 c3 B A2 A2 | G4 z2 F2- | F2 G2 G2 E2 | F2 E2 D4 | C4 z4 | G4 A4 | A2 B3 A GF | E2 G2 A2 G2- | %31
w: tres es- tre ri-|ches et|_ doc- teurs es-|* tre sa-|ges,|chan- tres|es- tre- ri- * *|ches et doc- teurs|
 G2 F2 E2 C2 | D4 z2 D2 | G3 F E2 D2 |1 E2 C2 z2 G2 :|2 D8- || D8 |] %37
w: _ es- tre sa-|ges,- et|doc- teurs es- tre|sa- ges, chan-|ges.|_|
V:3
 G4 d2 d2 | B4 G2 g2- | gfed c2 c2 | d2 c4 B2 | c2 e3 d cB | AG A2 B2 c2- | cB G2 A4 | G2 d4 d2 | %8
w: L'hom- me qui|est en ce|_ _ _ _ _ mon-|de pre- *||||sent, en son|
 e2 c2 d2 d2 | B2 c2 A3 G/A/ | B4 G2 g2- | g2 f2 g2 G2 | A2 F2 c2 d2 | fe dc d4 | c8 | %15
w: vi- vant voit plu-|si- eurs beaux _ _|_ pas- sa-||||ges,|
 z2 g2 g2 g2 | d4 z2 d2 | d2 d2 B2 d2 | c2 B2 AG c2- | c2 A2 c2 d2 | c2 BA B4 | A4 z2 A2 | %22
w: mais il nen|voit, mais|il nen voit bien|peu _ _ _ _|_ _ _ _|* * * sou-|vent, chan-|
 c2 c2 B4 |: G2 g4 f2 | g2 G4 A2 | A2 B2 G2 c2 | B2 c2 G2 g2 | f2 e2 d2 g2- | gf ed c2 c2 | %29
w: tres es- tre|ri- * *|ches et doc-|teurs es- tre sa-|||* * * * ges, et|
 d4 d2 e2- | ed cB A2 e2 | d3 c B2 G2 | A4 G4- | G4 z2 G2 |1 c2 c2 B4 :|2 A4 G4- || G8 |] %37
w: doc- teurs es-|* * * * * tre|sa- * * *|* ges,|_ chan-|tres es- tre|(sa)- ges.|_|
V:4
 z4 D,4 | G,2 G,2 E,4 |"^#" C,2 C3 B,A,G, | F,2 F,2 G,4 | C,6 C,2 | D,2 F,2 G,2 C,2 | E,4 D,4 | %7
w: L'hom-|me qui est|en ce- _ _ _|_ mon- *|* de|pre- * * *||
 G,4 z2 G,2 | G,2 A,2 F,2 G,2- | G,2 C,2 F,2 D,2 | G,3 A, B,2 A,G, | A,4 G,2 F,E, | D,4 C,2 G,2 | %13
w: sent, en|son vi- vant voit|_ plu- si- eurs|beaux _ _ pas- *|sa- * * *||
 F,2 A,2 G,4 | C,4 z2 C2 | C2 C2 G,4- |"^#" G,2 G,2 G,2 G,2 | D,2 D,2 G,2 G,2 | E,4 C,4 | %19
w: |ges, mais|il nen voit,|_ mais il nen|voit bien peu _|_ _|
 F,3 G, A,2 G,2 | A,2 F,2 E,4 | z2 A,2 C3 B, | A,4 G,4 |: C,4 D,2 D,2 | E,3 D, E,2 F,2 | %25
w: |* sou- vent,|chan- tres es-|tre ri-|* ches et|doc- teurs es- tre|
 D,2 G,2 C,4 | z4 z2 G,2 | A,2 A,2 B,2 G,2 | C3 B, A,G, F,E, | D,2 G,3 F, E,D, | C,2 E,2 F,2 C,2 | %31
w: sa- * ges,|chan-|tres es- tre ri-|ches, _ _ _ _ _|et doc- * * *|* teurs es- tre|
 G,2 D,2 E,4 | D,4 G,4- | G,2 G,2 C2 B,2 |1 A,4 G,4 :|2 D,4 G,4- || G,8 |] %37
w: sa- * *|* ges,|_ chan- tres es-|tre ri-|(sa)- ges.|_|

